X:1
T:Title
%%score ( 1 2 ) { 3 | 4 }
L:1/8
Q:1/4=125
M:6/4
K:Bb
V:1 treble nm="Grand Piano, Soprano"
V:2 treble 
V:3 bass nm="Choir Pad, Bass"
V:4 bass 
V:1
 [DF]3 [EG] [DF]2 [B,D]2 [DF]2 [DB]2 | [Fd]4 [DB]2 .[DF]6 | [EG]2 [GB]2 [EG]2 .[DF]6 | %3
w: By~William~James~Kirkpatrick * * * * *|||
 [FB]2 [EA]2 [DB]2 .[Ec]6 | [DF]3 [EG] [DF]2 [B,D]2 [DF]2 [DB]2 | [Fd]4 [DB]2 .[DF]6 | %6
w: |||
 [EG]3 [EB] [EB]2 [DB]2 [CA]2 [Ec]2 | [DB]12 | [EB]3 [EB] [EB]2 [Ec]2 [EB]2 [EG]2 | %9
w: |||
 [DF]2 [DF]2 [DB]2 .[Fd]6 | [Gd]3 [Ec] [DB]2 [Gd]3 [Ec] [DB]2 | [=Ed]3 [Ec] [EB]2 .[_Ec]6 | %12
w: |||
 [Fd]3 [Ec] [DB]2 [DF]2 [DB]2 [Fd]2 | [_Af]3 [Ge] [Ge]2 [Ge]6 | %14
w: ||
 [Fd]3 [Ec] [DB]2 [Ec]2 [EG]2 [EA]2 | [DB]12 | .[DF]6 .[DF]6 | .F6 .[DB]6 | %18
w: ||||
 [EB]3 [EB] [EB]2 [=EB]2 [EA]2 [EB]2 | c12 | .[DF]6 .[DF]6 | .[_AB]6 [GB]6 | %22
w: ||||
 [FB]3 [EB] [DB]2 [EA]2 [EB]2 [Ec]2 | [DB]3 [DF] [EG]2 [DF]6 |] %24
w: ||
V:2
 x12 | x12 | x12 | x12 | x12 | x12 | x12 | x12 | x12 | x12 | x12 | x12 | x12 | x12 | x12 | x12 | %16
 x12 | x12 | x12 | F4 G2 A6 | x12 | x12 | x12 | x12 |] %24
V:3
 B,3 B, B,2 F,2 B,2 B,2 | B,4 F,2 .B,6 | B,2 B,2 B,2 .B,6 | F,2 F,2 F,2 .A,6 | %4
 B,3 B, B,2 F,2 B,2 B,2 | B,4 F,2 .B,6 | B,3 G, G,2 F,2 F,2 F,2 | F,12 | G,3 G, G,2 G,2 G,2 B,2 | %9
 B,2 B,2 F,2 .B,6 | B,3 B, B,2 B,3 B, B,2 | B,3 A, G,2 .A,6 | B,3 F, F,2 B,2 B,2 B,2 | %13
 B,3 B, B,2 B,6 | B,3 B, B,2 A,2 B,2 C2 | B,12 | .F,3 G, F,2 D,2 F,2 B,2 | .D6 .F,6 | %18
 G,3 G, G,2 G,2 C2 B,2 | A,4 B,2 C6 | D3 C B,2 F,2 B,2[K:treble] D2 | F3 E E2 E6 | %22
 D3 C[K:bass] B,2 C2 G,2 A,2 | B,12 |] %24
V:4
 B,,3 B,, B,,2 B,,2 B,,2 B,,2 | B,,4 B,,2 .B,,6 | E,2 E,2 E,2 .B,,6 | D,2 C,2 B,,2 .F,6 | %4
 z6 B,,2 B,,2 B,,2 | B,,4 B,,2 .B,,6 | E,3 E, E,2 z6 | B,,12 | E,3 E, E,2 E,2 E,2 E,2 | %9
 B,,2 B,,2 B,,2 .B,,6 | G,3 G, G,2 G,3 G, G,2 | C,3 C, C,2 .F,6 | B,,3 B,, B,,2 B,,2 B,,2 B,,2 | %13
 D,3 E, E,2 E,6 | F,3 F, F,2 F,2 F,2 F,2 | B,,12 | .B,,6 .B,,6 | B,,2 .C4 .B,,6 | %18
 E,3 E, E,2 C,2 C,2 C,2 | F,12 | .B,,6 .B,,6 | .B,,6 E,6 | F,3 F, F,2 F,2 F,2 F,2 | B,,12 |] %24

